!!!COM: Bach, Johann Sebastian
!!!OTL: 28. Nun komm, der Heiden Heiland
!!!ONM: No. 28
!!!OCL: Erk
!!!SCA: BWV 36.8
!!!YOE: Riemenschneider, Albert
!!!OPR: 371 Harmonized Chorales and 69 Chorale Melodies with Figured Bass
!!!OPT: Bach Chorale Harmonizations
!!!ONB: From the end of Canata No. 36
**harm	**root	**kern	**kern	**kern	**kern
!	!	!bass	!tenor	!alto	!sprno
*Iorgan	*Iorgan	*Iorgan	*Iorgan	*Iorgan	*Iorgan
*k[f#c#]	*k[f#c#]	*k[f#c#]	*k[f#c#]	*k[f#c#]	*k[f#c#]
*b:	*b:	*b:	*b:	*b:	*b:
*met(c)	*met(c)	*met(c)	*met(c)	*met(c)	*met(c)
*M4/4	*M4/4	*M4/4	*M4/4	*M4/4	*M4/4
*MM60	*MM60	*MM60	*MM60	*MM60	*MM60
=1-	=1-	=1-	=1-	=1-	=1-
i	4BB	8B	4d	4f#	4b
.	.	8A	.	.	.
ivb	4EE	4G	8c#	4e	4b
.	.	.	8B	.	.
v	4FF#	8F#	4c#	4f#	4a
.	.	8E	.	.	.
ib	8BB	8D	4B	8f#	4dd
vib	8GG	8BB	.	16g	.
.	.	.	.	16a	.
=2	=2	=2	=2	=2	=2
iv	8EE	8E	4.B	8g	8cc#
ib	8BB	8D	.	8f#	8b
-VIIc	8AA	8E	.	4e	4cc#
V7	8FF#	8F#	8A#	.	.
i;	2BB;	2BB;	2F#;	2d;	2b;
=3	=3	=3	=3	=3	=3
i	4BB	4BB	8d	4f#	8b
.	.	.	8c#	.	8cc#
i	4BB	4B	4B	8f#	4dd
.	.	.	.	8g#	.
-VII	4AA	8An	4c#	4a	4ee
.	.	8Gn	.	.	.
ic	4BB	4F#	4d	8a	4dd
.	.	.	.	8b	.
=4	=4	=4	=4	=4	=4
iio	4CC#	4E	4G	4cc#	4ee
V/VI	4DD	4D	8A	8dd	4ff#
.	.	.	16B	8f#	.
.	.	.	16cn	.	.
VI;	2GG;	2G;	2B;	2g;	2dd;
!!linebreak: 2
=5	=5	=5	=5	=5	=5
Vb/VI	4DD	8F#	4A	4a	4dd
.	.	8E	.	.	.
Vb/III	4AA	8D	4e	4a	4ee
.	.	8C#	.	.	.
III	8DD	4D	8d	8a	8ff#
viio	8AA#	.	8c#	8a#	8ee
VI	4GG	8G	4B	4b	4dd
.	.	8F#	.	.	.
=6	=6	=6	=6	=6	=6
iiob	4CC#	4E	4g	8cc#	8ee
.	.	.	.	8b	8dd
V	4FF#	4F#	8c#	4a#	4cc#
.	.	.	8f#	.	.
i;	2BB;	2BB;	2d;	2f#;	2b;
=7	=7	=7	=7	=7	=7
i	4BB	8B	4d	4f#	4b
.	.	8A	.	.	.
viib/V	4EE#	4G#	8c#	4e#	4b
.	.	.	8B	.	.
v	4FF#	8F#	4c#	8f#	4a
.	.	8E	.	8g#	.
IIIb	4DD	8F#	4f#	8a	4dd
.	.	8G#y	.	8b	.
=8	=8	=8	=8	=8	=8
V7b	8FF#	8A#	8e	8f#	8cc#
i	8BB	8B	8d	[8b	8b
V	4FF#	4F#	16c#	8b]	4cc#
.	.	.	16d	.	.
.	.	.	8e	8a#	.
I;	2BB;	2BB;	2d#;	2f#;	2b;
==	==	==	==	==	==
*-	*-	*-	*-	*-	*-
!!!CDT: 1685/3//-1750/7/28
!!!OCY: Deutschland
!!!AGN: chorale
!!!AST: Baroque
!!!AIN: vox
!!!YOY: 1941
!!!PPP: New York; London
!!!PPR: G. Schirmer
!!!ENC: David Huron
!!!EED: David Huron
!!!YEN: United States of America
!!!YER: 1992
!!!YEC: Copyright 1992 David Huron
!!!YEM: Rights to all derivative electronic formats reserved.
!!!YER: March 20, 1996
!!!AMT: simple quadruple
!!!EEV: 1.1
!!chor2scor: -l 2 -s 0.6 -o %b.pmx
